collections/phosporicons/bold/article-medium.svg

<svg xmlns="http://www.w3.org/2000/svg" viewBox="0 0 256 256" width="20" height="20"><path fill="none" d="M0 0h256v256H0z"/><path fill="none" stroke="#000" stroke-linecap="round" stroke-linejoin="round" stroke-width="24" d="M24.035 48.001h16M120.035 48.001h16M24.035 128.001h24M112.035 128.001h24M176.035 88.001h64M176.035 128.001h64M72.035 168.001h168M72.035 208.001h168M40.035 128.001v-80l40 64 40-64v80"/></svg>

<svg xmlns="http://www.w3.org/2000/svg" viewBox="0 0 256 256" width="20" height="20"><path fill="none" d="M0 0h256v256H0z"/><path fill="none" stroke="#000" stroke-linecap="round" stroke-linejoin="round" stroke-width="24" d="M24.035 48.001h16m80 0h16m-112 80h24m64 0h24m40-40h64m-64 40h64m-168 40h168m-168 40h168m-200-80v-80l40 64 40-64v80"/></svg>
